X:21
T:Bachelor Duck
M:4/4
L:1/8
C:Copyright 2012 Stephan Deibel
R:Reel
K:Em
B4|:"Em"eBef gfe(d|"D"d)edBd3B|"Em"eBef gfe(f|"B7"f)bb^ab3B|
"Em"eBef gfe(d|"D"d)edBd2GA|"D"Bdef "C"gafg|1"Em"e4e3B:|2"Em"e4e3b|
|:"Em"beec' c'eeb|"Em"beee "D"fgfb|"Em"beec' c'ee e|"C"fgfg "D"a2ab|
"Em"beec' c'eeb|"Em"bee "D"efgf2|"D"efga "C"fg"D"df|1"Em"e4e3b:|2"Em"e4e3z|
